resources/haticons/SVG/add_to_drive.svg

<!-- Generated by IcoMoon.io -->
<svg version="1.1" xmlns="http://www.w3.org/2000/svg" width="24" height="24" viewBox="0 0 24 24">
<title>add_to_drive</title>
<path d="M7.688 3.516l-6.516 11.484 3.375 6 6.563-11.484-3.422-6zM13.359 15h-3.609l-3.469 6h8.25q-0.703-0.797-1.125-1.828t-0.422-2.156q0-0.563 0.094-1.055t0.281-0.961zM20.016 15.984v-3h-2.016v3h-3v2.016h3v3h2.016v-3h3v-2.016h-3zM20.719 11.25l-5.297-9.234h-6.844l6.141 10.781q0.844-0.844 1.945-1.313t2.32-0.469q0.891 0 1.734 0.234z"></path>
</svg>

<svg xmlns="http://www.w3.org/2000/svg" width="24" height="24"><path d="M7.688 3.516L1.172 15l3.375 6L11.11 9.516l-3.422-6zM13.359 15H9.75l-3.469 6h8.25q-.703-.797-1.125-1.828t-.422-2.156q0-.563.094-1.055t.281-.961zm6.657.984v-3H18v3h-3V18h3v3h2.016v-3h3v-2.016h-3zm.703-4.734l-5.297-9.234H8.578l6.141 10.781q.844-.844 1.945-1.313t2.32-.469q.891 0 1.734.234z"/></svg>
